src/assets/filled/LikeTag.svg

<?xml version="1.0" encoding="UTF-8"?>
<svg width="24" height="24" viewBox="0 0 24 24" xmlns="http://www.w3.org/2000/svg">
 <path d="m18 2h-12c-1.66 0-3 1.33-3 2.97v10.91c0 1.64 1.34 2.97 3 2.97h0.76c0.8 0 1.56 0.31 2.12 0.87l1.71 1.69c0.78 0.77 2.05 0.77 2.83 0l1.71-1.69c0.56-0.56 1.33-0.87 2.12-0.87h0.75c1.66 0 3-1.33 3-2.97v-10.91c0-1.64-1.34-2.97-3-2.97zm-1.32 8.5-1.17 3.56c-0.15 0.59-0.78 1.07-1.42 1.07h-1.85c-0.32 0-0.77-0.11-0.97-0.31l-1.47-1.15c-0.03 0.64-0.32 0.91-1.03 0.91h-0.48c-0.74 0-1.04-0.29-1.04-0.99v-4.77c0-0.7 0.3-0.99 1.04-0.99h0.49c0.74 0 1.04 0.29 1.04 0.99v0.36l1.94-2.88c0.2-0.31 0.71-0.53 1.14-0.36 0.47 0.16 0.77 0.68 0.67 1.14l-0.24 1.56c-0.03 0.13 0 0.27 0.09 0.36 0.08 0.09 0.2 0.15 0.33 0.15h1.95c0.38 0 0.7 0.15 0.89 0.42 0.18 0.26 0.21 0.59 0.09 0.93z"/>
</svg>

<svg width="24" height="24" viewBox="0 0 24 24"  xmlns="http://www.w3.org/2000/svg">
<path d="M18 2H6C4.34 2 3 3.33 3 4.97V15.88C3 17.52 4.34 18.85 6 18.85H6.76C7.56 18.85 8.32 19.16 8.88 19.72L10.59 21.41C11.37 22.18 12.64 22.18 13.42 21.41L15.13 19.72C15.69 19.16 16.46 18.85 17.25 18.85H18C19.66 18.85 21 17.52 21 15.88V4.97C21 3.33 19.66 2 18 2ZM16.68 10.5L15.51 14.06C15.36 14.65 14.73 15.13 14.09 15.13H12.24C11.92 15.13 11.47 15.02 11.27 14.82L9.8 13.67C9.77 14.31 9.48 14.58 8.77 14.58H8.29C7.55 14.58 7.25 14.29 7.25 13.59V8.82C7.25 8.12 7.55 7.83 8.29 7.83H8.78C9.52 7.83 9.82 8.12 9.82 8.82V9.18L11.76 6.3C11.96 5.99 12.47 5.77 12.9 5.94C13.37 6.1 13.67 6.62 13.57 7.08L13.33 8.64C13.3 8.77 13.33 8.91 13.42 9C13.5 9.09 13.62 9.15 13.75 9.15H15.7C16.08 9.15 16.4 9.3 16.59 9.57C16.77 9.83 16.8 10.16 16.68 10.5Z" />
</svg>
